images/50222943.svg

<?xml version="1.0" encoding="UTF-8"?>
<svg xmlns="http://www.w3.org/2000/svg" xmlns:xlink="http://www.w3.org/1999/xlink" width="300pt" height="300pt" viewBox="0 0 300 300" version="1.1">
<defs>
<g>
<symbol overflow="visible" id="glyph0-0">
<path style="stroke:none;" d="M 0.546875 1.9375 L 0.546875 -7.75 L 6.046875 -7.75 L 6.046875 1.9375 Z M 1.171875 1.328125 L 5.4375 1.328125 L 5.4375 -7.140625 L 1.171875 -7.140625 Z M 1.171875 1.328125 "/>
</symbol>
<symbol overflow="visible" id="glyph0-1">
<path style="stroke:none;" d="M 7.078125 -7.40625 L 7.078125 -6.25 C 6.710938 -6.59375 6.320312 -6.847656 5.90625 -7.015625 C 5.5 -7.179688 5.0625 -7.265625 4.59375 -7.265625 C 3.675781 -7.265625 2.972656 -6.984375 2.484375 -6.421875 C 2.003906 -5.867188 1.765625 -5.0625 1.765625 -4 C 1.765625 -2.945312 2.003906 -2.140625 2.484375 -1.578125 C 2.972656 -1.015625 3.675781 -0.734375 4.59375 -0.734375 C 5.0625 -0.734375 5.5 -0.816406 5.90625 -0.984375 C 6.320312 -1.148438 6.710938 -1.40625 7.078125 -1.75 L 7.078125 -0.625 C 6.703125 -0.363281 6.300781 -0.164062 5.875 -0.03125 C 5.457031 0.09375 5.007812 0.15625 4.53125 0.15625 C 3.320312 0.15625 2.367188 -0.210938 1.671875 -0.953125 C 0.972656 -1.703125 0.625 -2.71875 0.625 -4 C 0.625 -5.289062 0.972656 -6.304688 1.671875 -7.046875 C 2.367188 -7.796875 3.320312 -8.171875 4.53125 -8.171875 C 5.007812 -8.171875 5.460938 -8.101562 5.890625 -7.96875 C 6.316406 -7.84375 6.710938 -7.65625 7.078125 -7.40625 Z M 7.078125 -7.40625 "/>
</symbol>
<symbol overflow="visible" id="glyph0-2">
<path style="stroke:none;" d="M 1.03125 -8.359375 L 2.03125 -8.359375 L 2.03125 0 L 1.03125 0 Z M 1.03125 -8.359375 "/>
</symbol>
<symbol overflow="visible" id="glyph0-3">
<path style="stroke:none;" d="M 1.078125 -8.015625 L 2.546875 -8.015625 L 6.09375 -1.3125 L 6.09375 -8.015625 L 7.15625 -8.015625 L 7.15625 0 L 5.6875 0 L 2.125 -6.703125 L 2.125 0 L 1.078125 0 Z M 1.078125 -8.015625 "/>
</symbol>
<symbol overflow="visible" id="glyph0-4">
<path style="stroke:none;" d="M 4.328125 -7.28125 C 3.546875 -7.28125 2.921875 -6.984375 2.453125 -6.390625 C 1.992188 -5.804688 1.765625 -5.007812 1.765625 -4 C 1.765625 -2.988281 1.992188 -2.1875 2.453125 -1.59375 C 2.921875 -1.007812 3.546875 -0.71875 4.328125 -0.71875 C 5.117188 -0.71875 5.742188 -1.007812 6.203125 -1.59375 C 6.660156 -2.1875 6.890625 -2.988281 6.890625 -4 C 6.890625 -5.007812 6.660156 -5.804688 6.203125 -6.390625 C 5.742188 -6.984375 5.117188 -7.28125 4.328125 -7.28125 Z M 4.328125 -8.171875 C 5.453125 -8.171875 6.351562 -7.789062 7.03125 -7.03125 C 7.707031 -6.28125 8.046875 -5.269531 8.046875 -4 C 8.046875 -2.738281 7.707031 -1.726562 7.03125 -0.96875 C 6.351562 -0.21875 5.453125 0.15625 4.328125 0.15625 C 3.203125 0.15625 2.300781 -0.21875 1.625 -0.96875 C 0.957031 -1.71875 0.625 -2.726562 0.625 -4 C 0.625 -5.269531 0.957031 -6.28125 1.625 -7.03125 C 2.300781 -7.789062 3.203125 -8.171875 4.328125 -8.171875 Z M 4.328125 -8.171875 "/>
</symbol>
</g>
</defs>
<g id="surface17209">
<rect x="0" y="0" width="300" height="300" style="fill:rgb(100%,100%,100%);fill-opacity:1;stroke:none;"/>
<path style="fill:none;stroke-width:1.2;stroke-linecap:butt;stroke-linejoin:miter;stroke:rgb(0%,80%,0%);stroke-opacity:1;stroke-miterlimit:10;" d="M 198.683594 98.980469 L 185.105469 103.273438 "/>
<path style="fill:none;stroke-width:1.2;stroke-linecap:butt;stroke-linejoin:miter;stroke:rgb(0%,0%,0%);stroke-opacity:1;stroke-miterlimit:10;" d="M 185.105469 103.273438 L 171.53125 107.566406 "/>
<path style=" stroke:none;fill-rule:nonzero;fill:rgb(100%,100%,100%);fill-opacity:1;" d="M 193.683594 92.480469 L 204.683594 92.480469 L 204.683594 105.480469 L 193.683594 105.480469 Z M 193.683594 92.480469 "/>
<g style="fill:rgb(0%,80%,0%);fill-opacity:1;">
  <use xlink:href="#glyph0-1" x="193.683594" y="102.381836"/>
  <use xlink:href="#glyph0-2" x="201.134766" y="102.381836"/>
</g>
<path style="fill:none;stroke-width:1.2;stroke-linecap:butt;stroke-linejoin:miter;stroke:rgb(0%,0%,0%);stroke-opacity:1;stroke-miterlimit:10;" d="M 171.53125 107.566406 L 165.394531 135.375 "/>
<path style="fill:none;stroke-width:1.2;stroke-linecap:butt;stroke-linejoin:miter;stroke:rgb(0%,0%,0%);stroke-opacity:1;stroke-miterlimit:10;" d="M 164.375 108.90625 L 159.464844 131.152344 "/>
<path style="fill:none;stroke-width:1.2;stroke-linecap:butt;stroke-linejoin:miter;stroke:rgb(0%,0%,0%);stroke-opacity:1;stroke-miterlimit:10;" d="M 150.519531 88.351562 L 171.53125 107.566406 "/>
<path style="fill:none;stroke-width:1.2;stroke-linecap:butt;stroke-linejoin:miter;stroke:rgb(0%,0%,0%);stroke-opacity:1;stroke-miterlimit:10;" d="M 165.394531 135.375 L 138.246094 143.964844 "/>
<path style="fill:none;stroke-width:1.2;stroke-linecap:butt;stroke-linejoin:miter;stroke:rgb(0%,0%,0%);stroke-opacity:1;stroke-miterlimit:10;" d="M 165.394531 135.375 L 186.410156 154.59375 "/>
<path style="fill:none;stroke-width:1.2;stroke-linecap:butt;stroke-linejoin:miter;stroke:rgb(0%,0%,0%);stroke-opacity:1;stroke-miterlimit:10;" d="M 138.246094 143.964844 L 117.230469 124.746094 "/>
<path style="fill:none;stroke-width:1.2;stroke-linecap:butt;stroke-linejoin:miter;stroke:rgb(0%,0%,0%);stroke-opacity:1;stroke-miterlimit:10;" d="M 140.664062 137.097656 L 123.855469 121.722656 "/>
<path style="fill:none;stroke-width:1.2;stroke-linecap:butt;stroke-linejoin:miter;stroke:rgb(0%,0%,0%);stroke-opacity:1;stroke-miterlimit:10;" d="M 117.230469 124.746094 L 123.367188 96.9375 "/>
<path style="fill:none;stroke-width:1.2;stroke-linecap:butt;stroke-linejoin:miter;stroke:rgb(0%,0%,0%);stroke-opacity:1;stroke-miterlimit:10;" d="M 123.367188 96.9375 L 150.519531 88.351562 "/>
<path style="fill:none;stroke-width:1.2;stroke-linecap:butt;stroke-linejoin:miter;stroke:rgb(0%,0%,0%);stroke-opacity:1;stroke-miterlimit:10;" d="M 128.105469 102.46875 L 149.824219 95.597656 "/>
<path style="fill:none;stroke-width:1.2;stroke-linecap:butt;stroke-linejoin:miter;stroke:rgb(0%,0%,0%);stroke-opacity:1;stroke-miterlimit:10;" d="M 150.519531 88.351562 L 153.585938 74.445312 "/>
<path style="fill:none;stroke-width:1.2;stroke-linecap:butt;stroke-linejoin:miter;stroke:rgb(0%,80%,0%);stroke-opacity:1;stroke-miterlimit:10;" d="M 153.585938 74.445312 L 156.65625 60.542969 "/>
<path style=" stroke:none;fill-rule:nonzero;fill:rgb(100%,100%,100%);fill-opacity:1;" d="M 151.65625 54.042969 L 162.65625 54.042969 L 162.65625 67.042969 L 151.65625 67.042969 Z M 151.65625 54.042969 "/>
<g style="fill:rgb(0%,80%,0%);fill-opacity:1;">
  <use xlink:href="#glyph0-1" x="151.65625" y="63.944336"/>
  <use xlink:href="#glyph0-2" x="159.107422" y="63.944336"/>
</g>
<path style="fill:none;stroke-width:1.2;stroke-linecap:butt;stroke-linejoin:miter;stroke:rgb(0%,0%,0%);stroke-opacity:1;stroke-miterlimit:10;" d="M 186.410156 154.59375 L 200.359375 151.742188 "/>
<path style="fill:none;stroke-width:1.2;stroke-linecap:butt;stroke-linejoin:miter;stroke:rgb(0%,0%,100%);stroke-opacity:1;stroke-miterlimit:10;" d="M 200.359375 151.742188 L 214.308594 148.890625 "/>
<path style="fill:none;stroke-width:1.2;stroke-linecap:butt;stroke-linejoin:miter;stroke:rgb(0%,0%,0%);stroke-opacity:1;stroke-miterlimit:10;" d="M 183.210938 182.890625 L 186.410156 154.59375 "/>
<path style="fill:none;stroke-width:1.2;stroke-linecap:butt;stroke-linejoin:miter;stroke:rgb(0%,0%,0%);stroke-opacity:1;stroke-miterlimit:10;" d="M 190.191406 180.8125 L 192.746094 158.175781 "/>
<path style="fill:none;stroke-width:1.2;stroke-linecap:butt;stroke-linejoin:miter;stroke:rgb(0%,0%,100%);stroke-opacity:1;stroke-miterlimit:10;" d="M 214.308594 148.890625 L 221.332031 161.273438 "/>
<path style="fill:none;stroke-width:1.2;stroke-linecap:butt;stroke-linejoin:miter;stroke:rgb(0%,0%,0%);stroke-opacity:1;stroke-miterlimit:10;" d="M 221.332031 161.273438 L 228.355469 173.660156 "/>
<path style="fill:none;stroke-width:1.2;stroke-linecap:butt;stroke-linejoin:miter;stroke:rgb(0%,0%,100%);stroke-opacity:1;stroke-miterlimit:10;" d="M 209.882812 154.671875 L 215.503906 164.578125 "/>
<path style="fill:none;stroke-width:1.2;stroke-linecap:butt;stroke-linejoin:miter;stroke:rgb(0%,0%,0%);stroke-opacity:1;stroke-miterlimit:10;" d="M 215.503906 164.578125 L 221.121094 174.488281 "/>
<path style=" stroke:none;fill-rule:nonzero;fill:rgb(100%,100%,100%);fill-opacity:1;" d="M 210.308594 142.390625 L 218.308594 142.390625 L 218.308594 155.390625 L 210.308594 155.390625 Z M 210.308594 142.390625 "/>
<g style="fill:rgb(0%,0%,100%);fill-opacity:1;">
  <use xlink:href="#glyph0-3" x="210.308594" y="152.291992"/>
</g>
<path style="fill:none;stroke-width:1.2;stroke-linecap:butt;stroke-linejoin:miter;stroke:rgb(0%,0%,0%);stroke-opacity:1;stroke-miterlimit:10;" d="M 228.355469 173.660156 L 218.746094 184.167969 "/>
<path style="fill:none;stroke-width:1.2;stroke-linecap:butt;stroke-linejoin:miter;stroke:rgb(0%,0%,100%);stroke-opacity:1;stroke-miterlimit:10;" d="M 218.746094 184.167969 L 209.136719 194.671875 "/>
<path style="fill:none;stroke-width:1.2;stroke-linecap:butt;stroke-linejoin:miter;stroke:rgb(0%,0%,0%);stroke-opacity:1;stroke-miterlimit:10;" d="M 256.160156 179.796875 L 228.355469 173.660156 "/>
<path style="fill:none;stroke-width:1.2;stroke-linecap:butt;stroke-linejoin:miter;stroke:rgb(0%,0%,100%);stroke-opacity:1;stroke-miterlimit:10;" d="M 209.136719 194.671875 L 213.429688 208.25 "/>
<path style="fill:none;stroke-width:1.2;stroke-linecap:butt;stroke-linejoin:miter;stroke:rgb(0%,0%,0%);stroke-opacity:1;stroke-miterlimit:10;" d="M 213.429688 208.25 L 217.726562 221.824219 "/>
<path style="fill:none;stroke-width:1.2;stroke-linecap:butt;stroke-linejoin:miter;stroke:rgb(0%,0%,100%);stroke-opacity:1;stroke-miterlimit:10;" d="M 209.136719 194.671875 L 196.175781 188.78125 "/>
<path style="fill:none;stroke-width:1.2;stroke-linecap:butt;stroke-linejoin:miter;stroke:rgb(0%,0%,0%);stroke-opacity:1;stroke-miterlimit:10;" d="M 196.175781 188.78125 L 183.210938 182.890625 "/>
<path style=" stroke:none;fill-rule:nonzero;fill:rgb(100%,100%,100%);fill-opacity:1;" d="M 205.136719 188.171875 L 213.136719 188.171875 L 213.136719 201.171875 L 205.136719 201.171875 Z M 205.136719 188.171875 "/>
<g style="fill:rgb(0%,0%,100%);fill-opacity:1;">
  <use xlink:href="#glyph0-3" x="205.136719" y="198.073242"/>
</g>
<path style="fill:none;stroke-width:1.2;stroke-linecap:butt;stroke-linejoin:miter;stroke:rgb(0%,0%,0%);stroke-opacity:1;stroke-miterlimit:10;" d="M 217.726562 221.824219 L 245.53125 227.960938 "/>
<path style="fill:none;stroke-width:1.2;stroke-linecap:butt;stroke-linejoin:miter;stroke:rgb(0%,0%,0%);stroke-opacity:1;stroke-miterlimit:10;" d="M 221.949219 215.894531 L 244.195312 220.804688 "/>
<path style="fill:none;stroke-width:1.2;stroke-linecap:butt;stroke-linejoin:miter;stroke:rgb(0%,0%,0%);stroke-opacity:1;stroke-miterlimit:10;" d="M 245.53125 227.960938 L 264.75 206.945312 "/>
<path style="fill:none;stroke-width:1.2;stroke-linecap:butt;stroke-linejoin:miter;stroke:rgb(0%,0%,0%);stroke-opacity:1;stroke-miterlimit:10;" d="M 264.75 206.945312 L 256.160156 179.796875 "/>
<path style="fill:none;stroke-width:1.2;stroke-linecap:butt;stroke-linejoin:miter;stroke:rgb(0%,0%,0%);stroke-opacity:1;stroke-miterlimit:10;" d="M 257.503906 206.253906 L 250.632812 184.53125 "/>
<path style="fill:none;stroke-width:1.2;stroke-linecap:butt;stroke-linejoin:miter;stroke:rgb(0%,0%,0%);stroke-opacity:1;stroke-miterlimit:10;" d="M 183.210938 182.890625 L 158.441406 196.9375 "/>
<path style="fill:none;stroke-width:1.2;stroke-linecap:butt;stroke-linejoin:miter;stroke:rgb(0%,0%,0%);stroke-opacity:1;stroke-miterlimit:10;" d="M 158.441406 196.9375 L 146.167969 189.722656 "/>
<path style="fill:none;stroke-width:1.2;stroke-linecap:butt;stroke-linejoin:miter;stroke:rgb(0%,0%,100%);stroke-opacity:1;stroke-miterlimit:10;" d="M 146.167969 189.722656 L 133.890625 182.507812 "/>
<path style="fill:none;stroke-width:1.2;stroke-linecap:butt;stroke-linejoin:miter;stroke:rgb(0%,0%,0%);stroke-opacity:1;stroke-miterlimit:10;" d="M 152.589844 201.269531 L 142.769531 195.496094 "/>
<path style="fill:none;stroke-width:1.2;stroke-linecap:butt;stroke-linejoin:miter;stroke:rgb(0%,0%,100%);stroke-opacity:1;stroke-miterlimit:10;" d="M 142.769531 195.496094 L 132.953125 189.726562 "/>
<path style="fill:none;stroke-width:1.2;stroke-linecap:butt;stroke-linejoin:miter;stroke:rgb(0%,0%,0%);stroke-opacity:1;stroke-miterlimit:10;" d="M 158.21875 225.410156 L 158.441406 196.9375 "/>
<path style="fill:none;stroke-width:1.2;stroke-linecap:butt;stroke-linejoin:miter;stroke:rgb(0%,0%,100%);stroke-opacity:1;stroke-miterlimit:10;" d="M 133.890625 182.507812 L 109.121094 196.550781 "/>
<path style=" stroke:none;fill-rule:nonzero;fill:rgb(100%,100%,100%);fill-opacity:1;" d="M 129.890625 176.007812 L 137.890625 176.007812 L 137.890625 189.007812 L 129.890625 189.007812 Z M 129.890625 176.007812 "/>
<g style="fill:rgb(0%,0%,100%);fill-opacity:1;">
  <use xlink:href="#glyph0-3" x="129.890625" y="185.90918"/>
</g>
<path style="fill:none;stroke-width:1.2;stroke-linecap:butt;stroke-linejoin:miter;stroke:rgb(0%,0%,100%);stroke-opacity:1;stroke-miterlimit:10;" d="M 109.121094 196.550781 L 96.84375 189.339844 "/>
<path style="fill:none;stroke-width:1.2;stroke-linecap:butt;stroke-linejoin:miter;stroke:rgb(0%,0%,0%);stroke-opacity:1;stroke-miterlimit:10;" d="M 96.84375 189.339844 L 84.570312 182.125 "/>
<path style="fill:none;stroke-width:1.2;stroke-linecap:butt;stroke-linejoin:miter;stroke:rgb(0%,0%,100%);stroke-opacity:1;stroke-miterlimit:10;" d="M 109.121094 196.550781 L 109.011719 210.789062 "/>
<path style="fill:none;stroke-width:1.2;stroke-linecap:butt;stroke-linejoin:miter;stroke:rgb(0%,0%,0%);stroke-opacity:1;stroke-miterlimit:10;" d="M 109.011719 210.789062 L 108.898438 225.027344 "/>
<path style=" stroke:none;fill-rule:nonzero;fill:rgb(100%,100%,100%);fill-opacity:1;" d="M 105.121094 190.050781 L 113.121094 190.050781 L 113.121094 203.050781 L 105.121094 203.050781 Z M 105.121094 190.050781 "/>
<g style="fill:rgb(0%,0%,100%);fill-opacity:1;">
  <use xlink:href="#glyph0-3" x="105.121094" y="199.952148"/>
</g>
<path style="fill:none;stroke-width:1.2;stroke-linecap:butt;stroke-linejoin:miter;stroke:rgb(0%,0%,0%);stroke-opacity:1;stroke-miterlimit:10;" d="M 84.570312 182.125 L 84.792969 153.648438 "/>
<path style="fill:none;stroke-width:1.2;stroke-linecap:butt;stroke-linejoin:miter;stroke:rgb(0%,0%,0%);stroke-opacity:1;stroke-miterlimit:10;" d="M 77.894531 179.222656 L 78.070312 156.445312 "/>
<path style="fill:none;stroke-width:1.2;stroke-linecap:butt;stroke-linejoin:miter;stroke:rgb(0%,0%,0%);stroke-opacity:1;stroke-miterlimit:10;" d="M 59.800781 196.167969 L 84.570312 182.125 "/>
<path style="fill:none;stroke-width:1.2;stroke-linecap:butt;stroke-linejoin:miter;stroke:rgb(0%,0%,0%);stroke-opacity:1;stroke-miterlimit:10;" d="M 84.792969 153.648438 L 60.242188 139.21875 "/>
<path style="fill:none;stroke-width:1.2;stroke-linecap:butt;stroke-linejoin:miter;stroke:rgb(0%,0%,0%);stroke-opacity:1;stroke-miterlimit:10;" d="M 60.242188 139.21875 L 35.472656 153.265625 "/>
<path style="fill:none;stroke-width:1.2;stroke-linecap:butt;stroke-linejoin:miter;stroke:rgb(0%,0%,0%);stroke-opacity:1;stroke-miterlimit:10;" d="M 61.070312 146.453125 L 41.253906 157.6875 "/>
<path style="fill:none;stroke-width:1.2;stroke-linecap:butt;stroke-linejoin:miter;stroke:rgb(0%,0%,0%);stroke-opacity:1;stroke-miterlimit:10;" d="M 35.472656 153.265625 L 35.25 181.742188 "/>
<path style="fill:none;stroke-width:1.2;stroke-linecap:butt;stroke-linejoin:miter;stroke:rgb(0%,0%,0%);stroke-opacity:1;stroke-miterlimit:10;" d="M 35.25 181.742188 L 59.800781 196.167969 "/>
<path style="fill:none;stroke-width:1.2;stroke-linecap:butt;stroke-linejoin:miter;stroke:rgb(0%,0%,0%);stroke-opacity:1;stroke-miterlimit:10;" d="M 41.101562 177.40625 L 60.738281 188.949219 "/>
<path style="fill:none;stroke-width:1.2;stroke-linecap:butt;stroke-linejoin:miter;stroke:rgb(0%,0%,0%);stroke-opacity:1;stroke-miterlimit:10;" d="M 59.800781 196.167969 L 59.578125 224.644531 "/>
<path style="fill:none;stroke-width:1.2;stroke-linecap:butt;stroke-linejoin:miter;stroke:rgb(0%,0%,0%);stroke-opacity:1;stroke-miterlimit:10;" d="M 107.246094 222.113281 L 94.863281 229.136719 "/>
<path style="fill:none;stroke-width:1.2;stroke-linecap:butt;stroke-linejoin:miter;stroke:rgb(100%,0%,0%);stroke-opacity:1;stroke-miterlimit:10;" d="M 94.863281 229.136719 L 82.476562 236.160156 "/>
<path style="fill:none;stroke-width:1.2;stroke-linecap:butt;stroke-linejoin:miter;stroke:rgb(0%,0%,0%);stroke-opacity:1;stroke-miterlimit:10;" d="M 110.550781 227.941406 L 98.167969 234.964844 "/>
<path style="fill:none;stroke-width:1.2;stroke-linecap:butt;stroke-linejoin:miter;stroke:rgb(100%,0%,0%);stroke-opacity:1;stroke-miterlimit:10;" d="M 98.167969 234.964844 L 85.78125 241.988281 "/>
<path style="fill:none;stroke-width:1.2;stroke-linecap:butt;stroke-linejoin:miter;stroke:rgb(0%,0%,0%);stroke-opacity:1;stroke-miterlimit:10;" d="M 108.898438 225.027344 L 133.449219 239.457031 "/>
<path style=" stroke:none;fill-rule:nonzero;fill:rgb(100%,100%,100%);fill-opacity:1;" d="M 75.128906 232.574219 L 84.128906 232.574219 L 84.128906 245.574219 L 75.128906 245.574219 Z M 75.128906 232.574219 "/>
<g style="fill:rgb(100%,0%,0%);fill-opacity:1;">
  <use xlink:href="#glyph0-4" x="75.128906" y="242.475586"/>
</g>
<path style="fill:none;stroke-width:1.2;stroke-linecap:butt;stroke-linejoin:miter;stroke:rgb(0%,0%,0%);stroke-opacity:1;stroke-miterlimit:10;" d="M 133.449219 239.457031 L 158.21875 225.410156 "/>
<path style="fill:none;stroke-width:1.2;stroke-linecap:butt;stroke-linejoin:miter;stroke:rgb(0%,0%,0%);stroke-opacity:1;stroke-miterlimit:10;" d="M 132.621094 232.222656 L 152.4375 220.988281 "/>
</g>
</svg>

<svg xmlns="http://www.w3.org/2000/svg" xmlns:xlink="http://www.w3.org/1999/xlink" width="300pt" height="300pt" viewBox="0 0 300 300"><defs><symbol overflow="visible"><path d="M.547 1.938V-7.75h5.5v9.688zm.625-.61h4.266v-8.47H1.171zm0 0"/></symbol><symbol overflow="visible" id="a"><path d="M7.078-7.406v1.156c-.367-.344-.758-.598-1.172-.766-.406-.164-.843-.25-1.312-.25-.918 0-1.62.282-2.11.844-.48.555-.718 1.36-.718 2.422 0 1.055.238 1.86.718 2.422.49.562 1.192.844 2.11.844.468 0 .906-.082 1.312-.25.414-.164.805-.422 1.172-.766v1.125c-.375.262-.777.46-1.203.594-.418.124-.867.186-1.344.186-1.21 0-2.163-.367-2.858-1.11C.972-1.703.625-2.718.625-4c0-1.29.348-2.305 1.047-3.047.695-.75 1.648-1.125 2.86-1.125.476 0 .93.07 1.36.203.424.126.82.314 1.186.564zm0 0"/></symbol><symbol overflow="visible" id="b"><path d="M1.03-8.36h1V0h-1zm0 0"/></symbol><symbol overflow="visible" id="c"><path d="M1.078-8.016h1.47l3.546 6.704v-6.704h1.062V0H5.688L2.124-6.703V0H1.078zm0 0"/></symbol><symbol overflow="visible" id="d"><path d="M4.328-7.28c-.78 0-1.406.296-1.875.89-.46.585-.687 1.382-.687 2.39 0 1.012.226 1.813.687 2.406.47.586 1.094.875 1.875.875.79 0 1.414-.288 1.875-.874.457-.593.688-1.394.688-2.406 0-1.008-.23-1.805-.687-2.39-.46-.594-1.086-.89-1.875-.89zm0-.892c1.125 0 2.024.383 2.703 1.14C7.708-6.28 8.048-5.27 8.048-4c0 1.262-.34 2.273-1.016 3.03C6.353-.22 5.454.157 4.33.157S2.3-.22 1.625-.97c-.668-.75-1-1.757-1-3.03 0-1.27.332-2.28 1-3.03.676-.76 1.578-1.142 2.703-1.142zm0 0"/></symbol></defs><g><path fill="#fff" d="M0 0h300v300H0z"/><path d="M198.684 98.98l-13.58 4.293" stroke-width="1.2" stroke="#0c0" stroke-miterlimit="10" fill="none"/><path d="M185.105 103.273l-13.574 4.293" stroke-width="1.2" stroke="#000" stroke-miterlimit="10" fill="none"/><path d="M193.684 92.48h11v13h-11zm0 0" fill="#fff"/><g fill="#0c0"><use xlink:href="#a" x="193.684" y="102.382"/><use xlink:href="#b" x="201.135" y="102.382"/></g><path d="M171.53 107.566l-6.135 27.81M164.375 108.906l-4.91 22.246M150.52 88.352l21.01 19.214M165.395 135.375l-27.15 8.59M165.395 135.375l21.015 19.22M138.246 143.965l-21.016-19.22M140.664 137.098l-16.81-15.375M117.23 124.746l6.137-27.808M123.367 96.938l27.153-8.586M128.105 102.47l21.72-6.872M150.52 88.352l3.066-13.907" stroke-width="1.2" stroke="#000" stroke-miterlimit="10" fill="none"/><path d="M153.586 74.445l3.07-13.902" stroke-width="1.2" stroke="#0c0" stroke-miterlimit="10" fill="none"/><path d="M151.656 54.043h11v13h-11zm0 0" fill="#fff"/><g fill="#0c0"><use xlink:href="#a" x="151.656" y="63.944"/><use xlink:href="#b" x="159.107" y="63.944"/></g><path d="M186.41 154.594l13.95-2.852" stroke-width="1.2" stroke="#000" stroke-miterlimit="10" fill="none"/><path d="M200.36 151.742l13.95-2.85" stroke-width="1.2" stroke="#00f" stroke-miterlimit="10" fill="none"/><path d="M183.21 182.89l3.2-28.296M190.19 180.813l2.556-22.637" stroke-width="1.2" stroke="#000" stroke-miterlimit="10" fill="none"/><path d="M214.31 148.89l7.022 12.383" stroke-width="1.2" stroke="#00f" stroke-miterlimit="10" fill="none"/><path d="M221.332 161.273l7.023 12.387" stroke-width="1.2" stroke="#000" stroke-miterlimit="10" fill="none"/><path d="M209.883 154.672l5.62 9.906" stroke-width="1.2" stroke="#00f" stroke-miterlimit="10" fill="none"/><path d="M215.504 164.578l5.617 9.91" stroke-width="1.2" stroke="#000" stroke-miterlimit="10" fill="none"/><path d="M210.31 142.39h8v13h-8zm0 0" fill="#fff"/><use xlink:href="#c" x="210.309" y="152.292" fill="#00f"/><path d="M228.355 173.66l-9.61 10.508" stroke-width="1.2" stroke="#000" stroke-miterlimit="10" fill="none"/><path d="M218.746 184.168l-9.61 10.504" stroke-width="1.2" stroke="#00f" stroke-miterlimit="10" fill="none"/><path d="M256.16 179.797l-27.805-6.137" stroke-width="1.2" stroke="#000" stroke-miterlimit="10" fill="none"/><path d="M209.137 194.672l4.293 13.578" stroke-width="1.2" stroke="#00f" stroke-miterlimit="10" fill="none"/><path d="M213.43 208.25l4.297 13.574" stroke-width="1.2" stroke="#000" stroke-miterlimit="10" fill="none"/><path d="M209.137 194.672l-12.96-5.89" stroke-width="1.2" stroke="#00f" stroke-miterlimit="10" fill="none"/><path d="M196.176 188.78l-12.965-5.89" stroke-width="1.2" stroke="#000" stroke-miterlimit="10" fill="none"/><path d="M205.137 188.172h8v13h-8zm0 0" fill="#fff"/><use xlink:href="#c" x="205.137" y="198.073" fill="#00f"/><path d="M217.727 221.824l27.804 6.137M221.95 215.895l22.245 4.91M245.53 227.96l19.22-21.015M264.75 206.945l-8.59-27.148M257.504 206.254l-6.87-21.723M183.21 182.89l-24.77 14.048M158.44 196.938l-12.272-7.215" stroke-width="1.2" stroke="#000" stroke-miterlimit="10" fill="none"/><path d="M146.168 189.723l-12.277-7.215" stroke-width="1.2" stroke="#00f" stroke-miterlimit="10" fill="none"/><path d="M152.59 201.27l-9.82-5.774" stroke-width="1.2" stroke="#000" stroke-miterlimit="10" fill="none"/><path d="M142.77 195.496l-9.817-5.77" stroke-width="1.2" stroke="#00f" stroke-miterlimit="10" fill="none"/><path d="M158.22 225.41l.22-28.472" stroke-width="1.2" stroke="#000" stroke-miterlimit="10" fill="none"/><path d="M133.89 182.508l-24.77 14.043" stroke-width="1.2" stroke="#00f" stroke-miterlimit="10" fill="none"/><path d="M129.89 176.008h8v13h-8zm0 0" fill="#fff"/><use xlink:href="#c" x="129.891" y="185.909" fill="#00f"/><path d="M109.12 196.55l-12.276-7.21" stroke-width="1.2" stroke="#00f" stroke-miterlimit="10" fill="none"/><path d="M96.844 189.34l-12.274-7.215" stroke-width="1.2" stroke="#000" stroke-miterlimit="10" fill="none"/><path d="M109.12 196.55l-.108 14.24" stroke-width="1.2" stroke="#00f" stroke-miterlimit="10" fill="none"/><path d="M109.012 210.79l-.114 14.237" stroke-width="1.2" stroke="#000" stroke-miterlimit="10" fill="none"/><path d="M105.12 190.05h8v13h-8zm0 0" fill="#fff"/><use xlink:href="#c" x="105.121" y="199.952" fill="#00f"/><path d="M84.57 182.125l.223-28.477M77.895 179.223l.175-22.778M59.8 196.168l24.77-14.043M84.793 153.648l-24.55-14.43M60.242 139.22l-24.77 14.046M61.07 146.453l-19.816 11.234M35.473 153.266l-.223 28.476M35.25 181.742l24.55 14.426M41.102 177.406l19.636 11.543M59.8 196.168l-.222 28.477M107.246 222.113l-12.383 7.024" stroke-width="1.2" stroke="#000" stroke-miterlimit="10" fill="none"/><path d="M94.863 229.137l-12.386 7.023" stroke-width="1.2" stroke="#f00" stroke-miterlimit="10" fill="none"/><path d="M110.55 227.94l-12.382 7.025" stroke-width="1.2" stroke="#000" stroke-miterlimit="10" fill="none"/><path d="M98.168 234.965l-12.387 7.023" stroke-width="1.2" stroke="#f00" stroke-miterlimit="10" fill="none"/><path d="M108.898 225.027l24.55 14.43" stroke-width="1.2" stroke="#000" stroke-miterlimit="10" fill="none"/><path d="M75.13 232.574h9v13h-9zm0 0" fill="#fff"/><use xlink:href="#d" x="75.129" y="242.476" fill="#f00"/><path d="M133.45 239.457l24.77-14.047M132.62 232.223l19.817-11.235" stroke-width="1.2" stroke="#000" stroke-miterlimit="10" fill="none"/></g></svg>
